X:1
T:Rakes of Mallow, The
S:Memory
R:Polka
M:2/4
L:1/8
K:G
GB GB | GB c/B/A/G/ | FA FA | FA d/c/B/A/ |
GB GB | GB d2 | c/B/A/G/ | F/G/A/c/ | BG G2 :|
|: gf/e/ dc | Bc d2 | gf/e/ dc | Bc A2 |
gf/e/ dc | Bc d2 | F/G/A/c/ | BG G2 :| 

